X:1
T:D minor Oliver Holden, 1800
T:Adapted from Philip Doddridge, 1702-1751, Publ. 1755 (Hymn 64)  88. 88. (L. M.)
T:Tender Thoughts No copyright. Treble-Tenor-Bass from Plain Psalmody , 1800; Counter by B. C. Johnston, 2015.
%%score [ 1 2 3 4 ]
L:1/8
M:4/4
K:F
V:1 treble nm="Treble" snm="Tr."
V:2 treble nm="Counter" snm="C."
V:3 treble-8 nm="Tenor" snm="T."
V:4 bass nm="Bass" snm="B."
V:1
 A4 | A2 A2 d2 d2 | df ed ^c3 c | d2 A2 G2 F2 | E6 ED | D6 A2 | F2 F2 A2 A2 | f2 d2 ^c3 c | %8
 A2 F2 Ad BG | F4 E4 | D8 |] %11
V:2
 F4 | F2 F2 A2 A2 | FA AF E3 E | F2 A2 G2 A2 | A6 AG | F6 F2 | A2 A2 c2 c2 | A2 B2 ^c3 A | %8
w: 1.~A-|rise, my ten- der|thoughts, * a- * rise, To|tor- rents drown my|weep- ing *|eyes; And|thou, my heart, with|ang- uish feel Those|
 FG AG F2 E2 | D4 E4 | F8 |] %11
w: e- * vils * which thou|canst not|heal.|
V:3
 d4 | d2 d2 A2 A2 | fd ^cd A3 A | A2 d2 e2 d2 | ^c6 c2 | d6 d2 | A2 A2 c2 c2 | d2 f2 e3 A | %8
 d2 d2 A2 e2 | d4 ^c4 | d8 |] %11
V:4
 D,4 | D,2 D,2 D,2 D,2 | A,2 A,2 A,3 A, | D,2 D,2 ^C,2 D,2 | A,,6 A,,2 | D,6 D,2 | %6
 D,2 D,2 F,2 F,2 | D,2 D,2 A,3 A, | D,2 D,2 F,2 G,2 | A,4 A,,4 | D,8 |] %11

